src/assets/svg/smallO.svg

<svg width="130" height="146" viewBox="0 0 130 146" fill="none" xmlns="http://www.w3.org/2000/svg">
<path opacity="0.2" d="M120.479 64.0224V62.6641L119.598 63.6983C117.943 65.6426 116.438 67.3663 115.01 68.9358C123.849 58.3401 129.5 45.7453 129.5 32.0623C129.5 9.88648 114.603 0.5 103.925 0.5C86.9788 0.5 68.694 11.3897 54.6689 28.4455C40.6331 45.5143 30.7987 68.8311 30.7987 93.8279C30.7987 94.4534 31.1176 95.0188 31.5733 95.5072C31.9884 95.9522 32.5522 96.3724 33.2112 96.7657C10.3158 89.6092 1.44687 64.4921 13.2098 47.4284L13.2108 47.4269C17.1999 41.5934 22.1879 38.7977 26.6449 38.7119C31.076 38.6266 35.109 41.2158 37.258 46.4372L37.3854 46.7469H37.7204H38.179H38.9168L38.6435 46.0617C35.7954 38.9207 30.513 30.614 24.5255 26.1623C21.5281 23.9338 18.2963 22.6296 15.0726 23.0005C11.833 23.3732 8.72654 25.4221 5.95991 29.6311C-0.422049 39.1383 -1.08428 53.855 3.32061 67.4533C7.69999 80.9729 17.1278 93.5163 31.1373 98.8546C32.4594 112.14 35.6393 123.744 41.2428 132.06C46.9076 140.466 55.0455 145.5 66.1592 145.5C77.1554 145.5 90.4319 137.378 101.08 124.491C111.747 111.581 119.863 93.7916 120.479 74.2739C120.593 70.9321 120.537 67.7738 120.502 65.7197C120.489 65.0091 120.479 64.4307 120.479 64.0224ZM51.818 101.481C67.6257 100.474 85.0563 93.8522 99.3892 83.4194C99.3552 83.6506 99.317 83.9161 99.2739 84.2152C98.8786 86.9597 98.0747 92.5403 96.4029 100.545C96.3736 100.676 96.3421 100.817 96.3084 100.968C95.4613 104.769 93.2103 114.869 88.6449 124.176C83.8796 133.891 76.7034 142.525 66.1592 142.525C63.0747 142.525 60.6277 141.223 58.6747 138.938C56.7077 136.636 55.2421 133.334 54.1812 129.362C52.0923 121.543 51.6135 111.297 51.818 101.481ZM60.4959 79.5788L61.1848 79.8099L61.1545 79.0839C60.775 69.9917 62.6384 56.0638 67.5348 44.8535C69.9824 39.2498 73.172 34.362 77.1829 31.0891C81.1797 27.8277 86.0011 26.1601 91.7747 26.9912L91.7782 26.9916C95.6184 27.517 98.4391 28.9737 100.437 31.3438C102.444 33.7248 103.664 37.08 104.193 41.4811C105.248 50.269 103.525 63.0169 100.108 79.9017C86.1282 90.7996 68.472 97.8577 51.8262 98.6909C51.8225 98.1593 51.8141 97.5827 51.8049 96.9599C51.7153 90.8701 51.5608 80.3672 55.1795 64.3128C59.1444 47.1218 65.5434 31.9297 73.5945 21.048C81.6506 10.1595 91.305 3.65461 101.784 3.65461C108.013 3.65461 114.42 5.90191 119.268 10.6057C124.109 15.3032 127.43 22.4845 127.43 32.4214C127.43 41.2609 124.761 49.6436 120.282 57.4263C119.949 49.4349 117.817 41.0998 113.518 34.4614C108.896 27.323 101.767 22.1486 91.7255 21.5085C79.3125 20.6787 71.0724 30.1094 66.0049 42.0339C60.9265 53.9837 58.931 68.644 59.0847 78.7532L59.0901 79.1071L59.4256 79.2197L60.4959 79.5788Z" stroke="#002DFF"/>
</svg>

<svg viewBox='0 0 128 144' xmlns='http://www.w3.org/2000/svg'>
	<path opacity='.2'
		  d='M120.479 64.022v-1.358l-.881 1.034a213.702 213.702 0 0 1-4.588 5.238c8.839-10.596 14.49-23.19 14.49-36.874C129.5 9.886 114.603.5 103.925.5 86.979.5 68.694 11.39 54.669 28.445c-14.036 17.07-23.87 40.386-23.87 65.383 0 .625.319 1.19.774 1.68.415.444.98.864 1.638 1.258C10.316 89.609 1.447 64.492 13.21 47.428v-.001c3.99-5.834 8.978-8.63 13.435-8.715 4.431-.085 8.464 2.504 10.613 7.725l.127.31h1.532l-.273-.685c-2.849-7.141-8.131-15.448-14.118-19.9-2.998-2.228-6.23-3.532-9.453-3.162-3.24.373-6.346 2.422-9.113 6.631-6.382 9.507-7.044 24.224-2.64 37.822 4.38 13.52 13.808 26.063 27.817 31.402 1.322 13.285 4.502 24.889 10.106 33.205 5.665 8.406 13.802 13.44 24.916 13.44 10.996 0 24.273-8.122 34.921-21.009 10.667-12.911 18.783-30.7 19.399-50.218.114-3.342.058-6.5.023-8.553-.013-.71-.023-1.29-.023-1.698Zm-68.661 37.459c15.808-1.007 33.238-7.629 47.571-18.062l-.115.796c-.395 2.745-1.2 8.325-2.871 16.33-.03.131-.06.272-.095.423-.847 3.801-3.098 13.901-7.663 23.208-4.765 9.715-11.942 18.349-22.486 18.349-3.084 0-5.531-1.302-7.484-3.587-1.967-2.302-3.433-5.604-4.494-9.576-2.089-7.819-2.567-18.066-2.363-27.881Zm8.678-21.902.689.23-.03-.725c-.38-9.092 1.483-23.02 6.38-34.23 2.447-5.604 5.637-10.492 9.648-13.765C81.18 27.828 86 26.16 91.775 26.991h.003c3.84.526 6.661 1.983 8.659 4.353 2.007 2.38 3.227 5.736 3.756 10.137 1.055 8.788-.668 21.536-4.085 38.42-13.98 10.899-31.636 17.957-48.282 18.79-.004-.532-.012-1.108-.021-1.731-.09-6.09-.244-16.593 3.374-32.647 3.965-17.191 10.364-32.383 18.415-43.265 8.057-10.888 17.711-17.393 28.19-17.393 6.229 0 12.636 2.247 17.484 6.95 4.841 4.698 8.162 11.88 8.162 21.816 0 8.84-2.669 17.223-7.148 25.005-.333-7.991-2.465-16.326-6.764-22.965-4.622-7.138-11.751-12.312-21.792-12.952-12.413-.83-20.654 8.6-25.721 20.525-5.078 11.95-7.074 26.61-6.92 36.72l.005.353.336.113 1.07.359Z'
	/>
</svg>
